X:1
T:Title
%%score 1 2 3
L:1/8
Q:1/4=150
M:4/4
K:A
V:1 treble nm="Grand Piano"
V:2 bass nm="Grand Piano, Melody"
V:3 bass nm="Grand Piano"
V:1
 z4 A2 B2 | c4 e4 | c2 B2 c4 | A3 B c2 e2 | c4 A4 | B2 B2 c2 [Ae]2- | [Ae]4 A2 B2 | c4 e4 | %8
 c2 B2 c4 | A3 B c2 e2 | c4 A4 | B2 B2 c2 A2- | A4 e2 c2 | B4 A4 | A2 c2 e4 | B3 c B2 B2 | c4 e4 | %17
 c2 e2 f2 e2- | e4 c2 c2 | e4 f e3 | c2 B2 c4 | A3 B c2 e2 | c4 A4 | B2 B2 c2 A2- | A4 z4 |] %25
V:2
 z4 E,2 F,2 | A,4 A,4 | C2 B,2 A,4 | A,4 CB, A,2 | F,4 A,4 | E,2 E,2 F,2 A,2- | A,4 E,2 F,2 | %7
 A,4 A,4 | C2 B,2 A,4 | A,4 CB, A,2 | F,4 A,4 | E,2 E,2 F,2 A,2- | A,4 A,2[K:treble] C2 | E4 F4 | %14
 E2 C2 E4 | B,3 C E2 E2 | C4 B,4 | C2 B,2 C2 E2- | E4 F2 F2 | E4 F E3 | C2[K:bass] B,2 A,4 | %21
 A,4 CB, A,2 | F,4 A,4 | E,2 E,2 F,2 A,2- | A,4 z4 |] %25
V:3
 z4 E,2 C,2 | A,,4 A,,4 | C,2 E,2 A,4 | F,4 F,G, A,2 | F,4 E,4 | E,2 C,2 A,,2 A,,2- | %6
 A,,4 E,2 C,2 | A,,4 A,,4 | C,2 E,2 A,4 | F,4 F,G, A,2 | F,4 E,4 | E,2 C,2 A,,2 A,,2- | %12
 A,,4 A,2 F,2 | E,4 F,4 | E,2 F,2 E,4 | E,3 F, E,2 E,2 | C,4 E,4 | F,2 E,2 F,2 E,2- | E,4 A,2 A,2 | %19
 E,4 F, E,3 | F,2 E,2 A,4 | F,4 F,G, A,2 | F,4 E,4 | E,2 C,2 A,,2 A,,2- | A,,4 z4 |] %25

